-----BEGIN PGP MESSAGE-----

jA0ECQMK/8FnVMLEZnz/0ukBNNYH9SRX5XmXd2vGreXmiRRY7O3Kc0mWf6ItdPyX
bR/gFpvpr/vPaIBIoAmHB+/yMS3Q3+BA3plQAnnoyIKBRecX2TyyMb8e2Yji1Kjz
Yvh9GAPcT20/XjrHM7lRl4e2729+JC83bQLmZQscLZQTp94dwz4S637cEU8pOrKb
JOSpaQv4WFFJH8QO7cowF5pYUquh9IPOHG1/NN5i+rlgSCcujds+nl06VHH86ReE
pTS31nuvwAfjs5PuPXOjMauyGN9efpqXx4QS7nt1R4GHWnM0u7x6QOegpEtxdl01
Qq8/h/6pu/kkpyMhIj4fOsDjFmsAlhYc2kqMbPagfvJ5jn9sFdByjfbznAyPn1/j
K3EqnxsCwQDmnCdiKygweUCaqC8BGwUb7IJOjew6Q3CyI/W0/xRYgXX5uYIykO46
34gwmGVIjXnREhXf6zDuCNnB3yQ5B8sTZNERJ3ZRoIsRNZymwRkIuTkzrJMi4tcV
PIocOb/YFeayV2DPVXWy1lGn0mAnhr1hAg4Y/sUZMX0NoAy6PjLskU45nIArO+AG
wdUeXy+6IGUAGVVL9POjzs6EiHKAffBXDQcCpmWnspIwgNKo22LL7+/9puG098fN
QhCabZJ4jH1BvWd79RTTuJ18AHuPJ6BmW6dF1uyVPH7LmR5L22/oPG1JR9sWupZg
A1ftiNuF8ZI6SJhvbGn8Tjbyx89l0rtlQ3kYWN45yH62C+xAqxrv6XPmNSPBju1l
UKHjAleTI+7XBR3EO3En3+RTetcHtAZJuzkYbLM4hjoiY135kPM+NU8=
=at/P
-----END PGP MESSAGE-----
